X: 081
T: Miss Onslows Reel
C: by D.Mackenzie
%O: 1795
R: reel
Z: 2018 John Chambers <jc:trillian.mit.edu>
B: Wm. Campbell "10th Book of New and Favorite Country Dances, Strathey Reels" 1795 p.8
F: https://archive.org/details/campbellstenthbo00camp
M: C|
L: 1/8
K: G
% - - - - - - - - - - - - - - - - - - - - - - - - -
% Voice 1 arranged for small-scale proofreading
V: 1 staves=2
(c |\
B)Gdc Bcde | A<DAG FGAc |\
BGDC B,GA,F | GEDC B,G,G, :|\
|: e |\
gdeg dgBG | cABG EAAf |
gdeg dgBG | EA({G}TFE) (DG)Ge |\
gdeg dgBG | cABG EA-AB |\
(c>BcA) (d>cdB) | egdc BGG |]
% - - - - - - - - - - - - - - - - - - - - - - - - -
% Voice 1 preserves the original staff layout
V: 2 clef=bass middle=d
z |\
g2g2 g2g2 | d2d2 d2d2 | g2g2 d2d2 | c2BA GgG :||: z |
G2c2 B2G2 | A2G2 c2d2 | G2c2 B2G2 | c2d2 G2g2 | G2c2 B2G2 |
A2G2 c2d2 | e2 f4 g2 | c2BA GgG |]
% - - - - - - - - - - - - - - - - - - - - - - - - -
%%begintext align
%%   1st Cu Reel with 2d Cu on contrary
%% sides & on their own sides lead down the
%% middle up again :|: & hand 4 round
%% Right and Left at top
%%endtext
% - - - - - - - - - - - - - - - - - - - - - - - - -

%%sep 1 1 500
%%sep 1 1 500

